TH2/hitmap.svg

<svg xmlns="http://www.w3.org/2000/svg" viewBox="0 0 1200 800" preserveAspectRatio="none" width="1200" height="800">
 <path d="M0,0H1200V800H0Z" style="fill: white;"></path>
 <g>
  <g transform="translate(120,80)">
   <path d="M0,0H960V640H0Z" style="fill: white; stroke: black; stroke-width: 1;"></path>
   <svg x="0" y="0" overflow="hidden" width="960" height="640" viewBox="0 0 960 640">
    <g>
     <path fill="#1064dc" d="M640,256h53v256h-53zm53,0h54v256h-54zm54,0h53v256h-53z"></path>
     <path fill="#2eb7a4" d="M107,128h53v256h-53zM427,512h53v128h-53zm53,0h53v128h-53zm53,0h54v128h-54zm54,0h53v128h-53zm53,0h53v128h-53zm53,0h54v128h-54z"></path>
     <path fill="#52ba92" d="M800,256h53v256h-53zm53,0h54v256h-54zm54,0h53v256h-53z"></path>
     <path fill="#74bd81" d="M0,0h53v128h-53zM53,0h54v128h-54zm54,0h53v128h-53zm53,512h53v128h-53zm53,0h54v128h-54z"></path>
     <path fill="#95be71" d="M480,256h53v256h-53zm53,0h54v256h-54zm54,0h53v256h-53z"></path>
     <path fill="#b3bd65" d="M747,512h53v128h-53zm53,0h53v128h-53zm53,0h54v128h-54zm54,0h53v128h-53z"></path>
     <path fill="#d1bb59" d="M160,0h53v256h-53zm53,0h54v256h-54zm54,0h53v256h-53zm53,0h53v256h-53zm53,0h54v256h-54zm54,0h53v256h-53zm53,0h53v256h-53zm53,0h54v256h-54zm54,0h53v256h-53zm53,0h53v256h-53zm53,0h54v256h-54zm54,0h53v256h-53zm53,0h53v256h-53zm53,0h54v256h-54zm54,0h53v256h-53z"></path>
     <path fill="#fdd22b" d="M267,512h53v128h-53zM320,256h53v384h-53zm53,0h54v384h-54zm54,0h53v256h-53z"></path>
     <path fill="#f9f90f" d="M160,256h53v256h-53zm53,0h54v256h-54zm54,0h53v256h-53z"></path>
    </g>
   </svg>
   <g>
    <g transform="translate(0,640)">
     <path d="M0,0h960M0,-12v12m27,-12v12m26,-24v24m27,-12v12m27,-12v12m26,-12v12m27,-24v24m27,-12v12m26,-12v12m27,-12v12m27,-24v24m26,-12v12m27,-12v12m27,-12v12m26,-24v24m27,-12v12m27,-12v12m26,-12v12m27,-24v24m27,-12v12m26,-12v12m27,-12v12m27,-24v24m26,-12v12m27,-12v12m27,-12v12m26,-24v24m27,-12v12m27,-12v12m26,-12v12m27,-24v24m27,-12v12m26,-12v12m27,-12v12m27,-24v24m26,-12v12m27,-12v12" style="stroke: black; stroke-width: 1;"></path>
     <g font-family="Arial" font-size="28" space="preserve" fill="black" text-anchor="middle">
      <text dy=".8em" transform="translate(53,6)">
       2
      </text>
      <text dy=".8em" transform="translate(160,6)">
       4
      </text>
      <text dy=".8em" transform="translate(267,6)">
       6
      </text>
      <text dy=".8em" transform="translate(373,6)">
       8
      </text>
      <text dy=".8em" transform="translate(480,6)">
       10
      </text>
      <text dy=".8em" transform="translate(587,6)">
       12
      </text>
      <text dy=".8em" transform="translate(693,6)">
       14
      </text>
      <text dy=".8em" transform="translate(800,6)">
       16
      </text>
      <text dy=".8em" transform="translate(907,6)">
       18
      </text>
     </g>
     <g font-family="Arial" font-size="28" space="preserve" transform="translate(960,45)">
      <text fill="black" text-anchor="end" dy=".4em">
       (Colour scale)Energy[ADC Counts]
      </text>
     </g>
    </g>
    <g>
     <path d="M0,0v640M36,640h-36m18,-13h-18m18,-13h-18m18,-12h-18m18,-13h-18m36,-13h-36m18,-13h-18m18,-13h-18m18,-12h-18m18,-13h-18m36,-13h-36m18,-13h-18m18,-13h-18m18,-12h-18m18,-13h-18m36,-13h-36m18,-13h-18m18,-13h-18m18,-12h-18m18,-13h-18m36,-13h-36m18,-13h-18m18,-13h-18m18,-12h-18m18,-13h-18m36,-13h-36m18,-13h-18m18,-13h-18m18,-12h-18m18,-13h-18m36,-13h-36m18,-13h-18m18,-13h-18m18,-12h-18m18,-13h-18m36,-13h-36m18,-13h-18m18,-13h-18m18,-12h-18m18,-13h-18m36,-13h-36m18,-13h-18m18,-13h-18m18,-12h-18m18,-13h-18m36,-13h-36m18,-13h-18m18,-13h-18m18,-12h-18m18,-13h-18m36,-13h-36" style="stroke: black; stroke-width: 1;"></path>
     <g font-family="Arial" font-size="28" space="preserve" fill="black" text-anchor="end">
      <text dy=".4em" transform="translate(-4,640)">
       1
      </text>
      <text dy=".4em" transform="translate(-4,576)">
       1.5
      </text>
      <text dy=".4em" transform="translate(-4,512)">
       2
      </text>
      <text dy=".4em" transform="translate(-4,448)">
       2.5
      </text>
      <text dy=".4em" transform="translate(-4,384)">
       3
      </text>
      <text dy=".4em" transform="translate(-4,320)">
       3.5
      </text>
      <text dy=".4em" transform="translate(-4,256)">
       4
      </text>
      <text dy=".4em" transform="translate(-4,192)">
       4.5
      </text>
      <text dy=".4em" transform="translate(-4,128)">
       5
      </text>
      <text dy=".4em" transform="translate(-4,64)">
       5.5
      </text>
      <text dy=".4em" transform="translate(-4)">
       6
      </text>
     </g>
    </g>
   </g>
  </g>
  <g transform="translate(1086,80)">
   <path d="M0,0H48V640H0Z" style="fill: none; stroke: black; stroke-width: 1;"></path>
   <path d="M0,608H48V640H0Z" style="fill: #1652cd;"></path>
   <path d="M0,576H48V609H0Z" style="fill: #1652cd;"></path>
   <path d="M0,544H48V577H0Z" style="fill: #1064dc;"></path>
   <path d="M0,512H48V545H0Z" style="fill: #1272d9;"></path>
   <path d="M0,480H48V513H0Z" style="fill: #1481d6;"></path>
   <path d="M0,448H48V481H0Z" style="fill: #0e8fd1;"></path>
   <path d="M0,416H48V449H0Z" style="fill: #099dcc;"></path>
   <path d="M0,384H48V417H0Z" style="fill: #0da7c3;"></path>
   <path d="M0,352H48V385H0Z" style="fill: #1eafb3;"></path>
   <path d="M0,320H48V353H0Z" style="fill: #2eb7a4;"></path>
   <path d="M0,288H48V321H0Z" style="fill: #52ba92;"></path>
   <path d="M0,256H48V289H0Z" style="fill: #74bd81;"></path>
   <path d="M0,224H48V257H0Z" style="fill: #95be71;"></path>
   <path d="M0,192H48V225H0Z" style="fill: #b3bd65;"></path>
   <path d="M0,160H48V193H0Z" style="fill: #d1bb59;"></path>
   <path d="M0,128H48V161H0Z" style="fill: #e2c04b;"></path>
   <path d="M0,96H48V129H0Z" style="fill: #f4c63b;"></path>
   <path d="M0,64H48V97H0Z" style="fill: #fdd22b;"></path>
   <path d="M0,32H48V65H0Z" style="fill: #fbe61d;"></path>
   <path d="M0,0H48V33H0Z" style="fill: #f9f90f;"></path>
   <g transform="translate(48)">
    <path d="M0,0v640M0,640h-33m33,-60h-33m33,-60h-33m33,-60h-33m33,-59h-33m33,-60h-33m33,-60h-33m33,-60h-33m33,-60h-33m33,-60h-33m33,-59h-33" style="stroke: black; stroke-width: 1;"></path>
    <g font-family="Arial" font-size="28" space="preserve">
     <text fill="black" text-anchor="start" dy=".4em" transform="translate(4,640)">
      0
     </text>
     <text fill="black" text-anchor="start" dy=".4em" transform="translate(4,580)">
      1
     </text>
     <text fill="black" text-anchor="start" dy=".4em" transform="translate(4,520)">
      2
     </text>
     <text fill="black" text-anchor="start" dy=".4em" transform="translate(4,460)">
      3
     </text>
     <text fill="black" text-anchor="start" dy=".4em" transform="translate(4,401)">
      4
     </text>
     <text fill="black" text-anchor="start" dy=".4em" transform="translate(4,341)">
      5
     </text>
     <text fill="black" text-anchor="start" dy=".4em" transform="translate(4,281)">
      6
     </text>
     <text fill="black" text-anchor="start" dy=".4em" transform="translate(4,221)">
      7
     </text>
     <text fill="black" text-anchor="start" dy=".4em" transform="translate(4,161)">
      8
     </text>
     <text fill="black" text-anchor="start" dy=".4em" transform="translate(4,101)">
      9
     </text>
     <text fill="black" text-anchor="start" dy=".4em" transform="translate(4,42)">
      10
     </text>
     <g transform="translate(-60,-10)">
      <text fill="black" font-size="28">
       ×10
      </text>
      <text fill="black" font-size="17" transform="translate(46,-14)">
       6
      </text>
     </g>
    </g>
    <g font-family="Arial" font-size="28" space="preserve" transform="translate(67,0)">
     <text fill="black" text-anchor="end" dy=".4em" transform=" rotate(270)">
      Energy[ADC Counts]
     </text>
    </g>
   </g>
  </g>
  <g transform="translate(120,4)" font-family="Arial" font-size="40" space="preserve">
   <text fill="black" text-anchor="middle" dy=".8em" transform="translate(480)">
    HitMap
   </text>
  </g>
 </g>
</svg>

<svg xmlns="http://www.w3.org/2000/svg" viewBox="0 0 1200 800" preserveAspectRatio="none" width="1200" height="800">
 <path d="M0,0H1200V800H0Z" style="fill: white;"></path>
 <g>
  <g transform="translate(120,80)">
   <path d="M0,0H960V640H0Z" style="fill: white; stroke: black; stroke-width: 1;"></path>
   <svg x="0" y="0" overflow="hidden" width="960" height="640" viewBox="0 0 960 640">
    <g>
     <path fill="#1064dc" d="M640,256h53v256h-53zm53,0h54v256h-54zm54,0h53v256h-53z"></path>
     <path fill="#2eb7a4" d="M107,128h53v256h-53zM427,512h53v128h-53zm53,0h53v128h-53zm53,0h54v128h-54zm54,0h53v128h-53zm53,0h53v128h-53zm53,0h54v128h-54z"></path>
     <path fill="#52ba92" d="M800,256h53v256h-53zm53,0h54v256h-54zm54,0h53v256h-53z"></path>
     <path fill="#74bd81" d="M0,0h53v128h-53zM53,0h54v128h-54zm54,0h53v128h-53zm53,512h53v128h-53zm53,0h54v128h-54z"></path>
     <path fill="#95be71" d="M480,256h53v256h-53zm53,0h54v256h-54zm54,0h53v256h-53z"></path>
     <path fill="#b3bd65" d="M747,512h53v128h-53zm53,0h53v128h-53zm53,0h54v128h-54zm54,0h53v128h-53z"></path>
     <path fill="#d1bb59" d="M160,0h53v256h-53zm53,0h54v256h-54zm54,0h53v256h-53zm53,0h53v256h-53zm53,0h54v256h-54zm54,0h53v256h-53zm53,0h53v256h-53zm53,0h54v256h-54zm54,0h53v256h-53zm53,0h53v256h-53zm53,0h54v256h-54zm54,0h53v256h-53zm53,0h53v256h-53zm53,0h54v256h-54zm54,0h53v256h-53z"></path>
     <path fill="#fdd22b" d="M267,512h53v128h-53zM320,256h53v384h-53zm53,0h54v384h-54zm54,0h53v256h-53z"></path>
     <path fill="#f9f90f" d="M160,256h53v256h-53zm53,0h54v256h-54zm54,0h53v256h-53z"></path>
    </g>
   </svg>
   <g>
    <g transform="translate(0,640)">
     <path d="M0,0h960M0,-12V0M27,-12V0M53,-24V0M80,-12V0M107,-12V0M133,-12V0M160,-24V0M187,-12V0M213,-12V0M240,-12V0M267,-24V0M293,-12V0M320,-12V0M347,-12V0M373,-24V0M400,-12V0M427,-12V0M453,-12V0M480,-24V0M507,-12V0M533,-12V0M560,-12V0M587,-24V0M613,-12V0M640,-12V0M667,-12V0M693,-24V0M720,-12V0M747,-12V0M773,-12V0M800,-24V0M827,-12V0M853,-12V0M880,-12V0M907,-24V0M933,-12V0M960,-12V0" style="stroke: black; stroke-width: 1;"></path>
     <g font-family="Arial" font-size="28" space="preserve" fill="black" text-anchor="middle">
      <text dy=".8em" transform="translate(53,6)">
       2
      </text>
      <text dy=".8em" transform="translate(160,6)">
       4
      </text>
      <text dy=".8em" transform="translate(267,6)">
       6
      </text>
      <text dy=".8em" transform="translate(373,6)">
       8
      </text>
      <text dy=".8em" transform="translate(480,6)">
       10
      </text>
      <text dy=".8em" transform="translate(587,6)">
       12
      </text>
      <text dy=".8em" transform="translate(693,6)">
       14
      </text>
      <text dy=".8em" transform="translate(800,6)">
       16
      </text>
      <text dy=".8em" transform="translate(907,6)">
       18
      </text>
     </g>
     <g font-family="Arial" font-size="28" space="preserve" transform="translate(960,45)">
      <text fill="black" text-anchor="end" dy=".4em">
       (Colour scale)Energy[ADC Counts]
      </text>
     </g>
    </g>
    <g>
     <path d="M0,0v640M36,640H0M18,627H0M18,614H0M18,602H0M18,589H0M36,576H0M18,563H0M18,550H0M18,538H0M18,525H0M36,512H0M18,499H0M18,486H0M18,474H0M18,461H0M36,448H0M18,435H0M18,422H0M18,410H0M18,397H0M36,384H0M18,371H0M18,358H0M18,346H0M18,333H0M36,320H0M18,307H0M18,294H0M18,282H0M18,269H0M36,256H0M18,243H0M18,230H0M18,218H0M18,205H0M36,192H0M18,179H0M18,166H0M18,154H0M18,141H0M36,128H0M18,115H0M18,102H0M18,90H0M18,77H0M36,64H0M18,51H0M18,38H0M18,26H0M18,13H0M36,0H0" style="stroke: black; stroke-width: 1;"></path>
     <g font-family="Arial" font-size="28" space="preserve" fill="black" text-anchor="end">
      <text dy=".4em" transform="translate(-4,640)">
       1
      </text>
      <text dy=".4em" transform="translate(-4,576)">
       1.5
      </text>
      <text dy=".4em" transform="translate(-4,512)">
       2
      </text>
      <text dy=".4em" transform="translate(-4,448)">
       2.5
      </text>
      <text dy=".4em" transform="translate(-4,384)">
       3
      </text>
      <text dy=".4em" transform="translate(-4,320)">
       3.5
      </text>
      <text dy=".4em" transform="translate(-4,256)">
       4
      </text>
      <text dy=".4em" transform="translate(-4,192)">
       4.5
      </text>
      <text dy=".4em" transform="translate(-4,128)">
       5
      </text>
      <text dy=".4em" transform="translate(-4,64)">
       5.5
      </text>
      <text dy=".4em" transform="translate(-4)">
       6
      </text>
     </g>
    </g>
   </g>
  </g>
  <g transform="translate(1086,80)">
   <path d="M0,0H48V640H0Z" style="fill: none; stroke: black; stroke-width: 1;"></path>
   <path d="M0,608H48V640H0Z" style="fill: #1652cd;"></path>
   <path d="M0,576H48V609H0Z" style="fill: #1652cd;"></path>
   <path d="M0,544H48V577H0Z" style="fill: #1064dc;"></path>
   <path d="M0,512H48V545H0Z" style="fill: #1272d9;"></path>
   <path d="M0,480H48V513H0Z" style="fill: #1481d6;"></path>
   <path d="M0,448H48V481H0Z" style="fill: #0e8fd1;"></path>
   <path d="M0,416H48V449H0Z" style="fill: #099dcc;"></path>
   <path d="M0,384H48V417H0Z" style="fill: #0da7c3;"></path>
   <path d="M0,352H48V385H0Z" style="fill: #1eafb3;"></path>
   <path d="M0,320H48V353H0Z" style="fill: #2eb7a4;"></path>
   <path d="M0,288H48V321H0Z" style="fill: #52ba92;"></path>
   <path d="M0,256H48V289H0Z" style="fill: #74bd81;"></path>
   <path d="M0,224H48V257H0Z" style="fill: #95be71;"></path>
   <path d="M0,192H48V225H0Z" style="fill: #b3bd65;"></path>
   <path d="M0,160H48V193H0Z" style="fill: #d1bb59;"></path>
   <path d="M0,128H48V161H0Z" style="fill: #e2c04b;"></path>
   <path d="M0,96H48V129H0Z" style="fill: #f4c63b;"></path>
   <path d="M0,64H48V97H0Z" style="fill: #fdd22b;"></path>
   <path d="M0,32H48V65H0Z" style="fill: #fbe61d;"></path>
   <path d="M0,0H48V33H0Z" style="fill: #f9f90f;"></path>
   <g transform="translate(48)">
    <path d="M0,0v640M0,640H-33M0,580H-33M0,520H-33M0,460H-33M0,401H-33M0,341H-33M0,281H-33M0,221H-33M0,161H-33M0,101H-33M0,42H-33" style="stroke: black; stroke-width: 1;"></path>
    <g font-family="Arial" font-size="28" space="preserve">
     <text fill="black" text-anchor="start" dy=".4em" transform="translate(4,640)">
      0
     </text>
     <text fill="black" text-anchor="start" dy=".4em" transform="translate(4,580)">
      1
     </text>
     <text fill="black" text-anchor="start" dy=".4em" transform="translate(4,520)">
      2
     </text>
     <text fill="black" text-anchor="start" dy=".4em" transform="translate(4,460)">
      3
     </text>
     <text fill="black" text-anchor="start" dy=".4em" transform="translate(4,401)">
      4
     </text>
     <text fill="black" text-anchor="start" dy=".4em" transform="translate(4,341)">
      5
     </text>
     <text fill="black" text-anchor="start" dy=".4em" transform="translate(4,281)">
      6
     </text>
     <text fill="black" text-anchor="start" dy=".4em" transform="translate(4,221)">
      7
     </text>
     <text fill="black" text-anchor="start" dy=".4em" transform="translate(4,161)">
      8
     </text>
     <text fill="black" text-anchor="start" dy=".4em" transform="translate(4,101)">
      9
     </text>
     <text fill="black" text-anchor="start" dy=".4em" transform="translate(4,42)">
      10
     </text>
     <g transform="translate(-60,-10)">
      <text fill="black" font-size="28">
       ×10
      </text>
      <text fill="black" font-size="17" transform="translate(46,-14)">
       6
      </text>
     </g>
    </g>
    <g font-family="Arial" font-size="28" space="preserve" transform="translate(67,0)">
     <text fill="black" text-anchor="end" dy=".4em" transform=" rotate(270)">
      Energy[ADC Counts]
     </text>
    </g>
   </g>
  </g>
  <g transform="translate(120,4)" font-family="Arial" font-size="40" space="preserve">
   <text fill="black" text-anchor="middle" dy=".8em" transform="translate(480)">
    HitMap
   </text>
  </g>
 </g>
</svg>
